src/games/back-in-black/src/font/number-8.svg

<?xml version="1.0" encoding="UTF-8" standalone="no"?>
<!-- Created with Inkscape (http://www.inkscape.org/) -->

<svg
   xmlns:dc="http://purl.org/dc/elements/1.1/"
   xmlns:cc="http://creativecommons.org/ns#"
   xmlns:rdf="http://www.w3.org/1999/02/22-rdf-syntax-ns#"
   xmlns:svg="http://www.w3.org/2000/svg"
   xmlns="http://www.w3.org/2000/svg"
   xmlns:sodipodi="http://sodipodi.sourceforge.net/DTD/sodipodi-0.dtd"
   xmlns:inkscape="http://www.inkscape.org/namespaces/inkscape"
   width="14"
   height="22"
   viewBox="0 0 14 22"
   version="1.1"
   id="svg8"
   inkscape:version="0.92.3 (2405546, 2018-03-11)"
   sodipodi:docname="8.svg">
  <defs
     id="defs2" />
  <sodipodi:namedview
     id="base"
     pagecolor="#3e3e3e"
     bordercolor="#666666"
     borderopacity="1.0"
     inkscape:pageopacity="0"
     inkscape:pageshadow="2"
     inkscape:zoom="25.544232"
     inkscape:cx="0.67456447"
     inkscape:cy="9.9870149"
     inkscape:document-units="px"
     inkscape:current-layer="svg8"
     showgrid="true"
     units="px"
     showguides="true"
     inkscape:snap-global="true"
     inkscape:window-width="1662"
     inkscape:window-height="1374"
     inkscape:window-x="67"
     inkscape:window-y="27"
     inkscape:window-maximized="0"
     inkscape:pagecheckerboard="false"
     inkscape:measure-start="0,0"
     inkscape:measure-end="0,0">
    <inkscape:grid
       type="xygrid"
       id="grid815"
       empspacing="4"
       spacingx="1"
       spacingy="1" />
  </sodipodi:namedview>
  <metadata
     id="metadata5">
    <rdf:RDF>
      <cc:Work
         rdf:about="">
        <dc:format>image/svg+xml</dc:format>
        <dc:type
           rdf:resource="http://purl.org/dc/dcmitype/StillImage" />
        <dc:title />
      </cc:Work>
    </rdf:RDF>
  </metadata>
  <path
     style="fill:#ffffff;fill-opacity:1;stroke:#000000;stroke-opacity:1"
     d="m 1,5 c 0,0 0,-4 4,-4 4,0 0,0 4,0 4,0 4,4 4,4 z"
     id="path1176"
     inkscape:connector-curvature="0" />
  <path
     style="fill:#ffffff;fill-opacity:1;stroke:#000000;stroke-opacity:1"
     d="m 1,9 c 0,2 2,2 2,2 0,0 -2,0 -2,2 v 4 c 0,0 0,4 4,4 h 4 c 4,0 4,-4 4,-4 v -4 c 0,-2 -2,-2 -2,-2 0,0 2,0 2,-2 z m 6,4 a 2,2 0 0 1 2,2 2,2 0 0 1 -2,2 2,2 0 0 1 -2,-2 2,2 0 0 1 2,-2 z"
     id="path1178"
     inkscape:connector-curvature="0" />
</svg>

<?xml version="1.0" encoding="UTF-8" standalone="no"?>
<!-- Created with Inkscape (http://www.inkscape.org/) -->

<svg
   xmlns:dc="http://purl.org/dc/elements/1.1/"
   xmlns:cc="http://creativecommons.org/ns#"
   xmlns:rdf="http://www.w3.org/1999/02/22-rdf-syntax-ns#"
   xmlns:svg="http://www.w3.org/2000/svg"
   xmlns="http://www.w3.org/2000/svg"
   xmlns:sodipodi="http://sodipodi.sourceforge.net/DTD/sodipodi-0.dtd"
   xmlns:inkscape="http://www.inkscape.org/namespaces/inkscape"
   width="14"
   height="22"
   viewBox="0 0 14 22"
   version="1.1"
   id="svg8"
   inkscape:version="0.92.3 (2405546, 2018-03-11)"
   sodipodi:docname="number-8.svg">
  <defs
     id="defs2" />
  <sodipodi:namedview
     id="base"
     pagecolor="#3e3e3e"
     bordercolor="#666666"
     borderopacity="1.0"
     inkscape:pageopacity="0"
     inkscape:pageshadow="2"
     inkscape:zoom="25.544232"
     inkscape:cx="8.621564"
     inkscape:cy="9.9870149"
     inkscape:document-units="px"
     inkscape:current-layer="svg8"
     showgrid="true"
     units="px"
     showguides="true"
     inkscape:snap-global="true"
     inkscape:window-width="1662"
     inkscape:window-height="1374"
     inkscape:window-x="2627"
     inkscape:window-y="27"
     inkscape:window-maximized="0"
     inkscape:pagecheckerboard="false"
     inkscape:measure-start="0,0"
     inkscape:measure-end="0,0">
    <inkscape:grid
       type="xygrid"
       id="grid815"
       empspacing="4"
       spacingx="1"
       spacingy="1" />
  </sodipodi:namedview>
  <metadata
     id="metadata5">
    <rdf:RDF>
      <cc:Work
         rdf:about="">
        <dc:format>image/svg+xml</dc:format>
        <dc:type
           rdf:resource="http://purl.org/dc/dcmitype/StillImage" />
        <dc:title />
      </cc:Work>
    </rdf:RDF>
  </metadata>
  <path
     style="fill:#ffffff;fill-opacity:1;stroke:#000000;stroke-opacity:1"
     d="M 5 1 C 1 1 1 5 1 5 L 1 9 C 1 11 3 11 3 11 C 3 11 1 11 1 13 L 1 17 C 1 17 1 21 5 21 L 9 21 C 13 21 13 17 13 17 L 13 13 C 13 11 11 11 11 11 C 11 11 13 11 13 9 L 13 5 C 13 5 13 1 9 1 L 5 1 z M 7 5 C 7 5 9 5 9 7 C 9 9 7 9 7 9 C 7 9 5 9 5 7 C 5 5 7 5 7 5 z M 7 13 C 8.1045695 13 9 13.895431 9 15 C 9 16.104569 8.1045695 17 7 17 C 5.8954305 17 5 16.104569 5 15 C 5 13.895431 5.8954305 13 7 13 z "
     id="path1178" />
</svg>
